usr/share/icons/biglinux-icons-material/24/actions/tools-media-optical-burn.svg

<svg xmlns="http://www.w3.org/2000/svg" viewBox="0 0 24 24">
  <defs id="defs3051">
    <style type="text/css" id="current-color-scheme">
      .ColorScheme-Text {
        color:#363636;
      }
      </style>
  </defs>
 <path style="fill:currentColor;fill-opacity:1;stroke:none" 
     d="M 12 4 C 7.568 4 4 7.568 4 12 C 4 16.432 7.568 20 12 20 C 12.692084 20 13.360349 19.90395 14 19.740234 L 14 18.707031 C 13.366247 18.894565 12.696167 19 12 19 C 8.122 19 5 15.878 5 12 C 5 8.122 8.122 5 12 5 C 15.878 5 19 8.122 19 12 C 19 12.696167 18.894565 13.366247 18.707031 14 L 19.740234 14 C 19.903948 13.360349 20 12.692084 20 12 C 20 7.568 16.432 4 12 4 z M 12 6 C 8.676004 6 6 8.676 6 12 L 9 12 C 9 10.338 10.338002 9 12 9 L 12 6 z M 12 10 C 10.892001 10 10 10.892 10 12 C 10 13.108 10.892001 14 12 14 C 13.107999 14 14 13.108 14 12 C 14 10.892 13.107999 10 12 10 z M 12 11 C 12.553999 11 13 11.446 13 12 C 13 12.554 12.553999 13 12 13 C 11.446001 13 11 12.554 11 12 C 11 11.446 11.446001 11 12 11 z M 15 12 C 15 12.352948 14.93127 12.687647 14.818359 13 L 17.910156 13 C 17.966308 12.675132 18 12.341682 18 12 L 15 12 z M 16.404297 14.041016 C 17.317305 14.226916 18 15.0305 18 16 C 18 16.5815 17.751059 17.100144 17.357422 17.464844 C 17.137081 17.203944 17 16.8698 17 16.5 C 17 16.4182 17.012911 16.339719 17.025391 16.261719 C 16.415755 16.603619 16 17.2486 16 18 C 16 19.108 16.892005 20 18 20 C 19.107995 20 20 19.108 20 18 C 20 15.9225 18.426169 14.245216 16.404297 14.041016 z M 14 14.224609 C 13.469123 14.70179 12.773296 15 12 15 L 12 18 C 12.703343 18 13.373894 17.872755 14 17.652344 L 14 14.224609 z "
     class="ColorScheme-Text"
     />
</svg>

<svg xmlns="http://www.w3.org/2000/svg" viewBox="0 0 24 24"><path d="M12 4c-4.432 0-8 3.568-8 8a7.982 7.982 0 0 0 10 7.74v-1.033A7.034 7.034 0 0 1 12 19c-3.878 0-7-3.122-7-7s3.122-7 7-7 7 3.122 7 7c0 .696-.105 1.366-.293 2h1.033A7.982 7.982 0 0 0 12 4zm0 2c-3.324 0-6 2.676-6 6h3c0-1.662 1.338-3 3-3V6zm0 4c-1.108 0-2 .892-2 2s.892 2 2 2 2-.892 2-2-.892-2-2-2zm0 1c.554 0 1 .446 1 1s-.446 1-1 1-1-.446-1-1 .446-1 1-1zm3 1c0 .353-.069.688-.182 1h3.092c.056-.325.09-.658.09-1h-3zm1.404 2.041a1.995 1.995 0 0 1 .953 3.424A1.489 1.489 0 0 1 17 16.5c0-.082.013-.16.025-.238A1.996 1.996 0 0 0 18 20c1.108 0 2-.892 2-2a3.976 3.976 0 0 0-3.596-3.959zM14 14.225A2.979 2.979 0 0 1 12 15v3c.703 0 1.374-.127 2-.348v-3.427z" style="fill:currentColor;fill-opacity:1;stroke:none;color:#dedede"/></svg>
